X:121
T:Mr Sandman Harmony 
C:
N:TablEdited by Vance Henry
L:1/8
Q:1/4=110
M:4/4
K:A
z8 | "A"A,C EG FE CA, | "Bm"B,D F[AA] "E"G4 | "A"A,C EG FE CA, | "Bm"B,D F[AA] "E"G2 EF | 
"A"GF7/1 | "Ab"GG FG4z | "C#m"zA AG A2 G2 | "F#"CC CC4z | "B"zG GF G2 F2 | "E"CC B,C2B,3 | 
"A"zB BA BA BA | "F"=c2 c2 "E"^cB3 | "A"GF7/1 | "Ab"GG FG4z | "C#m"zA AG A2 G2 | 
"F#"CC CC4z | "Bm"B,2 D2 FA AA | "Dm"B6 AB | "A"c2 c2 "B"cA "E"c2 | "A"A8 | "D"DF Ac BA FD | 
"Em"E=G Bd "A"c4 | "D"DF Ac BA FD | "Em"E=G Bd "A"c2 AB | "D"cB7/1 | "Db"cc Bc4z | 
"F#m"zd dc d2 c2 | "B"FF FF4z | "E"zc cB c2 B2 | "A"FF EF2E3 | "D"ze ed ed ed | 
"Bb"=f2 f2 "A"^fe3 | "D"cB7/1 | "Db"cc Bc4z | "F#m"zd dc d2 c2 | "B"FF FF4z | 
"Em"E2 =G2 Bd dd | "Gm"e6 de | "D"f2 f2 "E"fd3 | "D"f2 f2 "E"f2 de | "D"f2 f2 "E"fd "A"e2 | 
"D"d8 | 


